X:0331
M:6/8
L:1/8
Q:3/8=120
K:D
   A2D  DFD|A2G FED| E2=c cBc|G3    GFE:|
   D2d Tdcd|F2A AFA| D2d Tdcd|A3    BAG |
   F2d  dcd|D2A AFA| E2=c cBc|G3 [1 GFE:|\
                                 [2 efg||
  Tf2d  dfd|afd dfd|Tf2d  dfd|a3    bag |
  Tf2d  dfd|afd dfd| e2=c cdc|g3    efg |
   fdf  ece|dcd A2G| F2d  dcd|A3    ABc |
   dBd  cAc|BGB AGF| GFE =cBA|G3    GFE:|
  TF2D  DFD|AFD EFG| F2D  DFD|ABc   dAG |
   F2D  DFD|AFD F2D| E2=c cBc|G3    GFE:|

